X: 1
T: String Quartet in B\b Major opus 50 no 1 mvt 3
C: Franz Joseph Haydn
%%abc-version 2.0
%%abcx-abcm2ps-target-version 5.9.1 (29 Sep 2008)
%%abc-creator hum2abc beta
%%abcx-conversion-date 2021/02/14 14:38:16
%%abc-copyright Copyright (c) 1994, 2000 Center for Computer Assisted Research in the Humanities
%%abc-edited-by Frances Bennion
%%abcx-initial-encoding-date 1997/04/15
%%gracespace 0 6 6
%%humdrum-veritas 1154625410
%%humdrum-veritas-data 3223310783
%%linebreak <none>
%%barnumbers 0
L: 1/4
M: 3/4
N: Derived from op50n1-03.krn
Q: "Poco allegretto"
%%staves [1 2 3 4]
V: 1
V: 2
V: 3 clef=alto
V: 4 clef=bass
K: Bb
[V:1]z z F [I:setbarnb1] |
[V:2]z2 z |
[V:3]z2 z |
[V:4]z2 z |
[V:1]B B d |
[V:2]z z F |
[V:3]z z F |
[V:4]z z B, |
[V:1]A B F |
[V:2]C D z |
[V:3]F2 z |
[V:4]E D z |
[V:1]d d g |
[V:2]B B d |
[V:3]z z B, |
[V:4]z z B,- |
[V:1]=e f _e |
[V:2]G A B- |
[V:3]C2 z |
[V:4]B, A, G- |
[V:1]^c d =B/A//B// |
[V:2]B A _A |
[V:3]z3 |
[V:4]G ^F =F |
[V:1]c A/G//A// B |
[V:2]G _G F |
[V:3]z3 |
[V:4]=E _E D |
[V:1]A e d/B/ |
[V:2]E c B |
[V:3]F F F |
[V:4]C A, B,/D/ |
[V:1]F z2 |
[V:2]A z2 |
[V:3]F z2 |
[V:4]F z F, |
[V:1]z z B |
[V:2]z z F |
[V:3]z z F |
[V:4]B, B, D |
[V:1]e d z |
[V:2]c B z |
[V:3]F2 z |
[V:4]A, B, F, |
[V:1]z z B- |
[V:2]z z d |
[V:3]z z B |
[V:4]D D G |
[V:1]B A g- |
[V:2]c2 G |
[V:3]G F z |
[V:4]=E F _E |
[V:1]g ^f =f |
[V:2]B A _A |
[V:3]z3 |
[V:4]^C D =B,/A,//B,// |
[V:1]=e _e d |
[V:2]G _G F |
[V:3]z3 |
[V:4]C A,/G,//A,// B, |
[V:1]c A B/d/ |
[V:2]F C B, |
[V:3]z F F |
[V:4]A, E D/B,/ |
[V:1]f z F |
[V:2]A, z z |
[V:3]F z z |
[V:4]F, z z |
[V:1]f f a |
[V:2]A A c |
[V:3]F z F |
[V:4]z3 |
[V:1]=e f F |
[V:2]_d c z |
[V:3]B A z |
[V:4]z3 |
[V:1]e e g |
[V:2]c c e |
[V:3]z z E |
[V:4]z z C |
[V:1]d e g |
[V:2]=B c e |
[V:3]_A G z |
[V:4]F E z |
[V:1]c d f |
[V:2]A B d |
[V:3]F2 d- |
[V:4]E D B,, |
[V:1]f e d |
[V:2]B2 F |
[V:3]d G B- |
[V:4]G, G, B, |
[V:1]d c B- |
[V:2]G2 =E |
[V:3]B E C |
[V:4]E, E, G, |
[V:1]B A z |
[V:2]F z F |
[V:3]C F/E/ D/C/ |
[V:4]F,2 z |
[V:1]z3 |
[V:2]B B d |
[V:3]D2 F |
[V:4]B,/A,/ G,/F,/ E,/D,/ |
[V:1]z3 |
[V:2]A B F |
[V:3]E D z |
[V:4]C, B,, z |
[V:1]B3- |
[V:2]d d g |
[V:3]B/A/ G/F/ =E/D/ |
[V:4]z3 |
[V:1]B A b- |
[V:2]=e f _e |
[V:3]C F G- |
[V:4]z z G, |
[V:1]b a _a |
[V:2]^c d =B/A//B// |
[V:3]G ^F =F |
[V:4]A, D, G, |
[V:1]g _g f |
[V:2]c A/G//A// B |
[V:3]=E _E D |
[V:4]C, F, B,, |
[V:1]e d c |
[V:2]c B A |
[V:3]G F E |
[V:4]E, F, F,, |
[V:1]B z F |
[V:2]B z2 |
[V:3]D z2 |
[V:4]B,, z2 |
[V:1]B B d |
[V:2]F3 |
[V:3]D3 |
[V:4]B,,3- |
[V:1]A B f |
[V:2]G F z |
[V:3]E D z |
[V:4]B,,2 z |
[V:1]c e c |
[V:2]F _G/=G/ _A/=A/ |
[V:3][E2A,2] E |
[V:4]F,3 |
[V:1]B z f'/z/ |
[V:2]B z z |
[V:3]D z z |
[V:4]B,, z z |
[V:1]d'/z/ b/z/ f/z/ |
[V:2]z3 |
[V:3]z3 |
[V:4]z3 |
[V:1]d/z/ B/z/ =B/z/ |
[V:2]z z _A |
[V:3]z z F |
[V:4]z z D |
[V:1]c c c |
[V:2]G G G |
[V:3]E G E |
[V:4]E E E |
[V:1]c z e'/z/ |
[V:2]G z2 |
[V:3]C z2 |
[V:4]E z2 |
[V:1]c'/z/ a/z/ f/z/ |
[V:2]z3 |
[V:3]z3 |
[V:4]z3 |
[V:1]e/z/ c/z/ A |
[V:2]z z E |
[V:3]z z C |
[V:4]z z F, |
[V:1]B B B |
[V:2]D D D |
[V:3]B, B, B, |
[V:4]B,, D, F, |
[V:1]B z z |
[V:2]D z A |
[V:3]B, z ^F |
[V:4]B,, z z |
[V:1]z d e |
[V:2]B B B |
[V:3]G G G |
[V:4]z3 |
[V:1]e e e |
[V:2]B z =B |
[V:3]G z G |
[V:4]z3 |
[V:1]z =e f |
[V:2]c c c |
[V:3]_A A A |
[V:4]z3 |
[V:1]f f f |
[V:2]c z2 |
[V:3]_A z ^C |
[V:4]z z A, |
[V:1]z3 |
[V:2]z ^f g |
[V:3]D D D |
[V:4]B, B, B, |
[V:1]z g _a |
[V:2]g g g |
[V:3]D D E |
[V:4]B, =B, C |
[V:1]_a a g |
[V:2]g f e |
[V:3]E B2- |
[V:4]C D E |
[V:1]g b a |
[V:2]e g f |
[V:3]B _d c |
[V:4]E =E F |
[V:1]a =e f |
[V:2]f _d c |
[V:3]c B A |
[V:4]F F2 |
[V:1]f =e f |
[V:2]c _d c |
[V:3]A B A |
[V:4]F F2 |
[V:1]f f f |
[V:2]c c c |
[V:3]A A A |
[V:4]F F F |
[V:1]f z3/ f'/ |
[V:2]c z f/z/ |
[V:3]A z2 |
[V:4]F z2 |
[V:1]z/d'/ z/b/ z/f/ |
[V:2]d/z/ B/z/ F/z/ |
[V:3]z3 |
[V:4]z3 |
[V:1]z/d/ z/B/ z/A/ |
[V:2]D/z/ B,/z/ C/z/ |
[V:3]z z ^F |
[V:4]z z D,, |
[V:1]G G G |
[V:2]B, B, B, |
[V:3]G E E |
[V:4]E,,/G,,/ B,,/E,/ B,,/G,,/ |
[V:1]G z3/ e'/ |
[V:2]B, z e/z/ |
[V:3]E z2 |
[V:4]E,, z2 |
[V:1]z/c'/ z/a/ z/f/ |
[V:2]c/z/ A/z/ F/z/ |
[V:3]z3 |
[V:4]z3 |
[V:1]z/e/ z/c/ z/A/ |
[V:2]E/z/ C/z/ A,/z/ |
[V:3]z2 E |
[V:4]z z F, |
[V:1]B B B |
[V:2]B, D D |
[V:3]D B, B, |
[V:4]B,,/D,/ F,/B,/ F,/D,/ |
[V:1]B z2 |]
[V:2]D z2 |]
[V:3]B, z2 |]
[V:4]B,, z2 |]

